gr/pause-fill.svg

<svg xmlns="http://www.w3.org/2000/svg" viewBox="0 0 24 24" height="1em" width="1em">
  <path fill="none" stroke="#000" stroke-width="2" d="M3 21h6V3H3v18Zm1-2h4V5H4v14Zm1-2h2V7H5v10Zm10 4h6V3h-6v18Zm1-2h4V5h-4v14Zm1-2h2V7h-2v10Z"/>
</svg>

<svg xmlns="http://www.w3.org/2000/svg" viewBox="0 0 24 24" height="1em" width="1em">
  <path fill="none" stroke="#000" stroke-width="2" d="M3,21 L9,21 L9,3 L3,3 L3,21 Z M4,19 L8,19 L8,5 L4,5 L4,19 Z M5,17 L7,17 L7,7 L5,7 L5,17 Z M15,21 L21,21 L21,3 L15,3 L15,21 Z M16,19 L20,19 L20,5 L16,5 L16,19 Z M17,17 L19,17 L19,7 L17,7 L17,17 Z"/>
</svg>
